22x22/apps/io.neovim.nvim.svg

<svg xmlns="http://www.w3.org/2000/svg" width="22" height="22" version="1.1">
 <path style="opacity:.2" d="m7 1.5-4.0293 2.8203-0.9687 0.6797-0.002 13 5 3.5v-11.426l8 11.426 4.029-2.82 0.971-0.68v-13l-5-3.5v11.426z"/>
 <path style="fill:#6ba63f" d="m20 4.5002-5-3.5v20l5-3.5z"/>
 <path style="fill:#42afe6" d="m2.0016 4.5002 4.9984-3.5v20l-4.9999-3.5z"/>
 <path style="fill:#96ca6b" d="m7 1.0002 12.029 17.18-4.029 2.82-12.029-17.179z"/>
 <path style="fill:#569e41" d="m15 12.425v8.575l4.0295-2.8205z"/>
 <path style="fill:#70be63" d="m7 1.0002-4.0292 2.8213 4.0292 5.7534v-8.5749z"/>
 <path style="opacity:.2;fill:#f4f4f7" d="m7 1-4.0293 2.8203-0.9687 0.6797v0.5l0.9687-0.6797 4.0293-2.8203 8 11.426v-0.5zm8 0v0.5l5 3.5v-0.5z"/>
</svg>

<svg xmlns="http://www.w3.org/2000/svg" width="22" height="22"><path style="opacity:.2" d="M7 1.5 2.97 4.32 2.003 5 2 18l5 3.5V10.074L15 21.5l4.029-2.82L20 18V5l-5-3.5v11.426z"/><path style="fill:#6ba63f" d="M20 4.5 15 1v20l5-3.5z"/><path style="fill:#42afe6" d="M2.002 4.5 7 1v20l-5-3.5z"/><path style="fill:#96ca6b" d="m7 1 12.029 17.18L15 21 2.971 3.821z"/><path style="fill:#569e41" d="M15 12.425V21l4.03-2.82z"/><path style="fill:#70be63" d="M7 1 2.97 3.821 7 9.575V1z"/><path style="opacity:.2;fill:#f4f4f7" d="M7 1 2.97 3.82l-.968.68V5l.969-.68L7 1.5l8 11.426v-.5zm8 0v.5L20 5v-.5z"/></svg>
